build/Karasa-Jaga/scalable/devices/drive-harddisk-symbolic.svg

<svg height="16" width="16" xmlns="http://www.w3.org/2000/svg"><g fill="#bebebe"><path d="m2.84375 0c-.8215224-.00137341-1.162371 1.045648-1.15625 1.3125l-.6875 11c.1531649-.670693.6175502-1.157078 1.1875-1.15625h11.65625c.521856.000758.967768.416136 1.15625 1l-.59375-10.75c.02502-.3780782-.39306-1.37330616-1.40625-1.375zm-.0292969.63867188h10.4199219c.2535.0240122.623245.42212772.558218 1.11769872l.09608 8.7475354h-11.7773449l.2317736-8.7598282c.0530224-.7154511.2274887-.97982498.4713514-1.10540592zm5.1274384.75389392c-1.991767 0-3.59375 1.4559499-3.59375 3.25 0 1.7175209 1.3717683 2.7406046 3.2456085 2.8574342-.2922298-.4478554-.3182305-1.0292017.09375-1.4375.2371494-.2350166.6190782-.3732707.96875-.375.3262112-.00204.6252128.0884623.90625.28125.00566.00432-.00576.026927 0 .03125h.0625c.015551.00761.016563.022518.03125.03125l.71875.5625c.663442-.5890678 1.160641-1.0457293 1.160641-1.9511842 0-1.7940501-1.6019829-3.25-3.5937495-3.25zm0 2.0625c.7292261 0 1.3125.5306621 1.3125 1.1875 0 .6568375-.6814154.7949342-1.4106415.7949342-.729226 0-1.2143585-.1380967-1.2143585-.7949342 0-.6568379.583274-1.1875 1.3125-1.1875zm.6518585 2.9824342c-.080077.011648-.210196.033408-.3125.09375-.2460575.2439224-.1794446.4014525.09375.6875.026801.028101.0935144.1304838.125.15625.4188535.736393.7029906 1.5022141 1.8125 2.03125.06267.095349.152068.1698482.25.25.450435.368768 1.091159.40573 1.4375.0625.324685-.3217831.254151-.8502509-.125-1.21875l-.0625-.0625v-.03125c-.01238-.010029-.01858-.021653-.03125-.03125-1.189378-.2104391-2.0578469-.8193406-2.6875-1.75l-.09375-.0625c-.0519318-.0279491-.1660279-.1599427-.40625-.125zm-4.09375 2.71875c-.3918317 0-.71875.2720721-.71875.625 0 .352927.3269183.625.71875.625.3918221 0 .71875-.272073.71875-.625 0-.3529279-.3269279-.625-.71875-.625z"/><path d="m2.5659425 11.779661c-.8098185-.0013-1.4376715.692922-1.4376715 1.525693v1.114928c0 .832771.627853 1.524437 1.4376715 1.525693l10.9247885.01695c.809819.0013 1.437672-.692922 1.437672-1.525693v-1.114928c0-.832771-.627853-1.524436-1.437672-1.525693zm.011985 1.650517 2.279597.0035 1.2492121 1.31947.069501-1.317424 7.3264787.01137c.05801.00009.146701.03087.146701.234722v1.114928c0 .203852-.08869.234812-.146701.234722l-10.9247888-.016916c-.058017-.00009-.1467012-.03087-.1467012-.234722v-1.114928c0-.203854.088685-.234812.1467012-.234722z"/></g></svg>

<?xml version="1.0" encoding="UTF-8" standalone="no"?>
<!-- Created with Inkscape (http://www.inkscape.org/) -->

<svg
   xmlns:osb="http://www.openswatchbook.org/uri/2009/osb"
   xmlns:dc="http://purl.org/dc/elements/1.1/"
   xmlns:cc="http://creativecommons.org/ns#"
   xmlns:rdf="http://www.w3.org/1999/02/22-rdf-syntax-ns#"
   xmlns:svg="http://www.w3.org/2000/svg"
   xmlns="http://www.w3.org/2000/svg"
   xmlns:xlink="http://www.w3.org/1999/xlink"
   xmlns:sodipodi="http://sodipodi.sourceforge.net/DTD/sodipodi-0.dtd"
   xmlns:inkscape="http://www.inkscape.org/namespaces/inkscape"
   version="1.1"
   width="16"
   height="16"
   id="svg3808"
   inkscape:version="0.92.2 (unknown)"
   sodipodi:docname="drive-harddisk-symbolic.svg">
  <sodipodi:namedview
     pagecolor="#ffffff"
     bordercolor="#666666"
     borderopacity="1"
     objecttolerance="10"
     gridtolerance="10"
     guidetolerance="10"
     inkscape:pageopacity="0"
     inkscape:pageshadow="2"
     inkscape:window-width="1366"
     inkscape:window-height="697"
     id="namedview7"
     showgrid="false"
     showguides="true"
     inkscape:guide-bbox="true"
     inkscape:zoom="20.378749"
     inkscape:cx="13.563135"
     inkscape:cy="6.5731068"
     inkscape:window-x="0"
     inkscape:window-y="0"
     inkscape:window-maximized="1"
     inkscape:current-layer="svg3808">
    <inkscape:grid
       type="xygrid"
       id="grid3053" />
  </sodipodi:namedview>
  <defs
     id="defs3810">
    <linearGradient
       inkscape:collect="always"
       xlink:href="#XMLID_19_"
       id="linearGradient12942"
       gradientUnits="userSpaceOnUse"
       gradientTransform="matrix(0,-0.44649484,0.43865775,0,44.314056,98.880451)"
       x1="180.37399"
       y1="-157.96339"
       x2="188.83299"
       y2="-157.96339" />
    <linearGradient
       id="XMLID_19_"
       gradientUnits="userSpaceOnUse"
       x1="180.37399"
       y1="-157.96339"
       x2="188.83299"
       y2="-157.96339"
       gradientTransform="matrix(0,-1.8884098,1.8552635,0,317.52681,460.62003)">
      <stop
         offset="0"
         style="stop-color:#DDDDDD"
         id="stop126" />
      <stop
         offset="0.2738"
         style="stop-color:#BBBBBB"
         id="stop128" />
      <stop
         offset="0.5617"
         style="stop-color:#9F9F9F"
         id="stop130" />
      <stop
         offset="0.8136"
         style="stop-color:#8E8E8E"
         id="stop132" />
      <stop
         offset="1"
         style="stop-color:#888888"
         id="stop134" />
    </linearGradient>
    <linearGradient
       inkscape:collect="always"
       xlink:href="#linearGradient6253-0"
       id="linearGradient12938"
       gradientUnits="userSpaceOnUse"
       gradientTransform="matrix(0.29171261,0,0,0.49647278,-6.3928271,69.131208)"
       x1="-35.539001"
       y1="-144.21001"
       x2="-35.539001"
       y2="-108.32" />
    <linearGradient
       id="linearGradient6253-0">
      <stop
         style="stop-color:#ffffff;stop-opacity:1"
         offset="0"
         id="stop6255-0" />
      <stop
         id="stop6257-8"
         offset="0.64336616"
         style="stop-color:#efefef;stop-opacity:1" />
      <stop
         style="stop-color:#e5e5e5;stop-opacity:1"
         offset="1"
         id="stop6259-5" />
    </linearGradient>
    <linearGradient
       inkscape:collect="always"
       xlink:href="#linearGradient3214"
       id="linearGradient12940"
       gradientUnits="userSpaceOnUse"
       gradientTransform="matrix(0.79749691,0,0,1.368051,-28.610824,-12.086273)"
       x1="7.8513999"
       y1="19.968"
       x2="7.8513999"
       y2="7.0348001" />
    <linearGradient
       x1="7.8513999"
       y1="19.968"
       gradientTransform="matrix(0.64516,0,0,0.97976,0.25806,-6.7257)"
       x2="7.8513999"
       gradientUnits="userSpaceOnUse"
       y2="7.0348001"
       id="linearGradient3214">
      <stop
         offset="0"
         style="stop-color:#848484;stop-opacity:1;"
         id="stop3486" />
      <stop
         offset="1"
         style="stop-color:#bebebe;stop-opacity:1;"
         id="stop3488" />
    </linearGradient>
    <linearGradient
       inkscape:collect="always"
       xlink:href="#linearGradient3217"
       id="linearGradient12936"
       gradientUnits="userSpaceOnUse"
       gradientTransform="matrix(0.86516705,0,0,1.4752569,9.9026508,-95.765287)"
       x1="46.426998"
       y1="101.88"
       x2="46.426998"
       y2="85.788002" />
    <linearGradient
       x1="46.426998"
       y1="101.88"
       gradientTransform="matrix(0.12584,0,0,0.1986,0.13145,-5.1684)"
       x2="46.426998"
       gradientUnits="userSpaceOnUse"
       y2="85.788002"
       id="linearGradient3217">
      <stop
         offset="0"
         style="stop-color:#aaa"
         id="stop2223" />
      <stop
         offset="1"
         style="stop-color:#646464"
         id="stop2219" />
    </linearGradient>
    <linearGradient
       y2="85.788002"
       x2="46.426998"
       y1="101.88"
       x1="46.426998"
       gradientTransform="matrix(0.15555368,0,0,0.26524546,-28.767329,-8.8387032)"
       gradientUnits="userSpaceOnUse"
       id="linearGradient13048"
       xlink:href="#linearGradient3217"
       inkscape:collect="always" />
    <linearGradient
       x1="8.2128801"
       y1="0.95885509"
       x2="8.2128801"
       y2="14.985587"
       id="linearGradient3899"
       xlink:href="#linearGradient3798-3"
       gradientUnits="userSpaceOnUse"
       gradientTransform="matrix(1,0,0,-1,0,16)" />
    <linearGradient
       id="linearGradient3798-3">
      <stop
         id="stop3800-9"
         style="stop-color:#bebebe;stop-opacity:0.69800001"
         offset="0" />
      <stop
         id="stop3802-0"
         style="stop-color:#bebebe;stop-opacity:1"
         offset="1" />
    </linearGradient>
    <radialGradient
       cx="8"
       cy="13.70627"
       r="5.4887881"
       fx="8"
       fy="13.70627"
       id="radialGradient3922"
       xlink:href="#linearGradient3798-3"
       gradientUnits="userSpaceOnUse"
       gradientTransform="matrix(2.0028749,0,0,2.103321,-27.472015,-17.454038)" />
    <linearGradient
       id="linearGradient5606"
       osb:paint="solid">
      <stop
         id="stop5608"
         offset="0"
         style="stop-color:#000000;stop-opacity:1;" />
    </linearGradient>
    <linearGradient
       inkscape:collect="always"
       gradientTransform="matrix(0.08112299,0,0,0.07855526,540.8143,254.8467)"
       gradientUnits="userSpaceOnUse"
       xlink:href="#linearGradient3785"
       id="linearGradient3189"
       x1="365.51193"
       x2="365.97757"
       y1="408.39655"
       y2="520.1709" />
    <linearGradient
       id="linearGradient3785">
      <stop
         id="stop3787"
         offset="0"
         style="stop-color:#384880;stop-opacity:1;" />
      <stop
         id="stop3789"
         offset="1"
         style="stop-color:#000000;stop-opacity:1;" />
    </linearGradient>
    <linearGradient
       x1="8.2128801"
       y1="0.95885509"
       x2="8.2128801"
       y2="14.985587"
       id="linearGradient3899-9"
       xlink:href="#linearGradient3798-3-2"
       gradientUnits="userSpaceOnUse"
       gradientTransform="matrix(1,0,0,-1,0,16)" />
    <linearGradient
       id="linearGradient3798-3-2">
      <stop
         id="stop3800-9-5"
         style="stop-color:#bebebe;stop-opacity:0.69800001"
         offset="0" />
      <stop
         id="stop3802-0-1"
         style="stop-color:#bebebe;stop-opacity:1"
         offset="1" />
    </linearGradient>
    <radialGradient
       cx="8"
       cy="13.70627"
       r="5.4887881"
       fx="8"
       fy="13.70627"
       id="radialGradient3922-0"
       xlink:href="#linearGradient3798-3-2"
       gradientUnits="userSpaceOnUse"
       gradientTransform="matrix(2.0028749,0,0,2.103321,-27.472015,-17.454038)" />
  </defs>
  <metadata
     id="metadata3813">
    <rdf:RDF>
      <cc:Work
         rdf:about="">
        <dc:format>image/svg+xml</dc:format>
        <dc:type
           rdf:resource="http://purl.org/dc/dcmitype/StillImage" />
        <dc:title />
      </cc:Work>
    </rdf:RDF>
  </metadata>
  <path
     style="color:#bebebe;display:inline;overflow:visible;visibility:visible;fill:#bebebe;fill-opacity:1;fill-rule:nonzero;stroke:none;stroke-width:1;marker:none;enable-background:accumulate"
     d="M 2.84375,0 C 2.0222276,-0.00137341 1.681379,1.045648 1.6875,1.3125 L 1,12.3125 c 0.1531649,-0.670693 0.6175502,-1.157078 1.1875,-1.15625 h 11.65625 c 0.521856,7.58e-4 0.967768,0.416136 1.15625,1 l -0.59375,-10.75 C 14.43127,1.0281718 14.01319,0.03294384 13,0.03125 Z M 2.8144531,0.63867188 H 13.234375 c 0.2535,0.0240122 0.623245,0.42212772 0.558218,1.11769872 l 0.09608,8.7475354 H 2.1113281 L 2.3431017,1.7440778 C 2.3961241,1.0286267 2.5705904,0.76425282 2.8144531,0.63867188 Z M 7.9418915,1.3925658 c -1.991767,0 -3.59375,1.4559499 -3.59375,3.25 C 4.3481415,6.3600867 5.7199098,7.3831704 7.59375,7.5 7.3015202,7.0521446 7.2755195,6.4707983 7.6875,6.0625 7.9246494,5.8274834 8.3065782,5.6892293 8.65625,5.6875 8.9824612,5.68546 9.2814628,5.7759623 9.5625,5.96875 9.56816,5.97307 9.55674,5.995677 9.5625,6 H 9.625 c 0.015551,0.00761 0.016563,0.022518 0.03125,0.03125 l 0.71875,0.5625 c 0.663442,-0.5890678 1.160641,-1.0457293 1.160641,-1.9511842 0,-1.7940501 -1.6019829,-3.25 -3.5937495,-3.25 z m 0,2.0625 c 0.7292261,0 1.3125,0.5306621 1.3125,1.1875 0,0.6568375 -0.6814154,0.7949342 -1.4106415,0.7949342 -0.729226,0 -1.2143585,-0.1380967 -1.2143585,-0.7949342 0,-0.6568379 0.583274,-1.1875 1.3125,-1.1875 z M 8.59375,6.4375 C 8.513673,6.449148 8.383554,6.470908 8.28125,6.53125 8.0351925,6.7751724 8.1018054,6.9327025 8.375,7.21875 8.401801,7.246851 8.4685144,7.3492338 8.5,7.375 c 0.4188535,0.736393 0.7029906,1.5022141 1.8125,2.03125 0.06267,0.095349 0.152068,0.1698482 0.25,0.25 0.450435,0.368768 1.091159,0.40573 1.4375,0.0625 C 12.324685,9.3969669 12.254151,8.8684991 11.875,8.5 L 11.8125,8.4375 V 8.40625 C 11.80012,8.396221 11.79392,8.384597 11.78125,8.375 10.591872,8.1645609 9.7234031,7.5556594 9.09375,6.625 L 9,6.5625 C 8.9480682,6.5345509 8.8339721,6.4025573 8.59375,6.4375 Z M 4.5,9.15625 c -0.3918317,0 -0.71875,0.2720721 -0.71875,0.625 0,0.352927 0.3269183,0.625 0.71875,0.625 0.3918221,0 0.71875,-0.272073 0.71875,-0.625 0,-0.3529279 -0.3269279,-0.625 -0.71875,-0.625 z"
     id="path59"
     inkscape:connector-curvature="0"
     sodipodi:nodetypes="ccccccccccccccccssccccccccssssssssccccccccccccssssss" />
  <path
     style="fill:#bebebe;fill-opacity:1;stroke:none"
     d="M 2.5659425,11.779661 C 1.756124,11.778361 1.128271,12.472583 1.128271,13.305354 l 0,1.114928 c 0,0.832771 0.627853,1.524437 1.4376715,1.525693 l 10.9247885,0.01695 c 0.809819,0.0013 1.437672,-0.692922 1.437672,-1.525693 l 0,-1.114928 c 0,-0.832771 -0.627853,-1.524436 -1.437672,-1.525693 z m 0.011985,1.650517 2.279597,0.0035 1.2492121,1.31947 0.069501,-1.317424 7.3264787,0.01137 c 0.05801,9e-5 0.146701,0.03087 0.146701,0.234722 l 0,1.114928 c 0,0.203852 -0.08869,0.234812 -0.146701,0.234722 L 2.5779275,15.01455 c -0.058017,-9e-5 -0.1467012,-0.03087 -0.1467012,-0.234722 l 0,-1.114928 c 0,-0.203854 0.088685,-0.234812 0.1467012,-0.234722 z"
     id="path3009"
     inkscape:connector-curvature="0"
     sodipodi:nodetypes="sssssssssscccssssssss" />
  <g
     id="g3077"
     transform="translate(-123.60224,-162.61889)" />
  <g
     id="g3077-0"
     transform="translate(-140.51144,126.87462)" />
  <g
     id="layer9"
     inkscape:label="status"
     style="display:inline"
     transform="translate(-429.45429,190.2086)" />
  <g
     id="layer1"
     inkscape:label="places"
     style="display:inline"
     transform="translate(-188.45409,-426.7914)" />
  <g
     id="layer14"
     inkscape:label="mimetypes"
     style="display:inline"
     transform="translate(-429.45429,190.2086)" />
  <g
     id="layer15"
     inkscape:label="emblems"
     style="display:inline"
     transform="translate(-429.45429,190.2086)" />
  <g
     id="g71291"
     inkscape:label="emotes"
     style="display:inline"
     transform="translate(-429.45429,190.2086)" />
  <g
     id="layer2"
     inkscape:label="categories"
     style="display:inline"
     transform="translate(-188.45409,-276.7914)" />
  <g
     id="g6058"
     inkscape:label="apps"
     style="display:inline"
     transform="translate(-188.45409,-276.7914)" />
  <g
     id="layer12"
     inkscape:label="actions"
     style="display:inline"
     transform="translate(-429.45429,190.2086)" />
</svg>
